app/dist/common/images/viad.svg

<svg height="18" viewBox="0 0 18 18" width="18" xmlns="http://www.w3.org/2000/svg"><path d="m0 0h18v18h-18z" fill="#096db8"/><path d="m8.5 6a.5.5 0 1 0 0-1 .5.5 0 0 0 0 1zm-6.5 1h2.55v.34h-.13c-.27-.02-.69-.05-.58.41l1.14 4.05 1.26-3.93c.07-.21.05-.53-.63-.53v-.34h3.07v3.49c.05.23.19.58.6.08l1.35-3.57 1.27 3.49c.03.1.18.33.52.33.33 0 .38-.22.39-.33v-2.76c-.03-.14-.07-.39-.32-.39v-.34h1.8c.55-.02 1.66.4 1.7 1.86a1.98 1.98 0 0 1 -1.67 2.14h-3.42v-.18c.2.03.61.01.5-.33l-.31-.9h-1.2l-.33.9c-.02.1-.02.33.4.33v.18h-2.63v-.18c.23.02.63-.06.66-.54v-2.61c0-.14-.05-.33-.51-.33-.58 0-.72.05-.81.33l-1.77 5.33h-.24l-1.8-5.33c-.05-.14-.24-.33-.59-.33h-.27zm8.5.88.47 1.37h-.97zm2.93-.37c.63-.13 1.9-.03 1.91 1.47.02 1.5-1.12 1.64-1.7 1.52-.06-.02-.2-.12-.2-.38v-2.61z" fill="#fff" fill-rule="evenodd"/></svg>

<!-- by TradingView --><svg width="18" height="18" viewBox="0 0 18 18" xmlns="http://www.w3.org/2000/svg"><path fill="#096DB8" d="M0 0h18v18H0z"/><path fill-rule="evenodd" d="M8.5 6a.5.5 0 1 0 0-1 .5.5 0 0 0 0 1ZM2 7h2.55v.34h-.13c-.27-.02-.69-.05-.58.41l1.14 4.05 1.26-3.93c.07-.21.05-.53-.63-.53V7h3.07v3.49c.05.23.19.58.6.08L10.63 7l1.27 3.49c.03.1.18.33.52.33.33 0 .38-.22.39-.33V7.73c-.03-.14-.07-.39-.32-.39V7h1.8c.55-.02 1.66.4 1.7 1.86A1.98 1.98 0 0 1 14.32 11H10.9v-.18c.2.03.61.01.5-.33l-.31-.9h-1.2l-.33.9c-.02.1-.02.33.4.33V11H7.33v-.18c.23.02.63-.06.66-.54V7.67c0-.14-.05-.33-.51-.33-.58 0-.72.05-.81.33L4.9 13h-.24L2.86 7.67c-.05-.14-.24-.33-.59-.33H2V7Zm8.5.88.47 1.37H10l.5-1.37Zm2.93-.37c.63-.13 1.9-.03 1.91 1.47.02 1.5-1.12 1.64-1.7 1.52-.06-.02-.2-.12-.2-.38V7.51Z" fill="#fff"/></svg>
